icons-common/present.svg

<svg height="1em" width="auto" viewBox="0 0 105 105" fill="currentColor" xmlns="http://www.w3.org/2000/svg">
    <path d="M39.8326 19.3601C42.9107 16.3904 46.9122 16.3904 49.9903 19.3601C53.0684 22.3298 53.816 28.7783 54.0358 31.451C54.0358 31.6631 54.0358 31.8752 53.9479 32.0874C53.816 32.4692 53.4642 32.851 53.0244 32.9783C52.8486 33.0631 52.5847 33.0631 52.3649 33.0631C49.5946 32.851 42.8668 32.0449 39.8326 29.1601C36.7985 26.2752 36.7545 22.3298 39.8326 19.3601Z"
          />
    <path d="M65.9522 19.3608C69.0303 22.3305 69.0303 26.1911 65.9522 29.1608C62.8741 32.1305 56.1903 32.8517 53.42 33.0638C53.2001 33.0638 52.9803 33.0638 52.7604 32.979C52.3646 32.8517 51.9689 32.5123 51.837 32.0881C51.749 31.9184 51.749 31.6638 51.749 31.4517C51.9689 28.779 52.8044 22.2881 55.7945 19.3608C58.7847 16.4335 62.8741 16.3911 65.9522 19.3608Z"
          />
    <path d="M62.6545 87.1119H43.1746C32.5772 87.1119 23.9146 78.7967 23.9146 68.5301V49.7361C23.9146 39.4694 32.5332 31.1543 43.1746 31.1543H62.6985C73.2959 31.1543 81.9585 39.4694 81.9585 49.7361V68.5725C81.9585 78.7967 73.3399 87.1543 62.6985 87.1543L62.6545 87.1119ZM43.1746 38.5785C36.7986 38.5785 31.6537 43.5846 31.6537 49.6937V68.5301C31.6537 74.6816 36.8425 79.6452 43.1746 79.6452H62.6985C69.0745 79.6452 74.2193 74.6391 74.2193 68.5301V49.7361C74.2193 43.5846 69.0305 38.621 62.6985 38.621H43.1746V38.5785Z"
          />
    <path d="M49.067 83.3781C48.3195 67.2145 48.3195 51.0084 49.067 34.8448C49.1989 32.8084 51.0018 31.2387 53.1125 31.3236C55.0913 31.4084 56.6303 32.9781 56.7622 34.8448C57.202 42.9478 57.2459 51.0084 57.2899 59.1115C57.2459 67.2145 57.202 75.2751 56.7622 83.3781C56.6303 85.4145 54.8274 86.9842 52.7167 86.8994C50.738 86.8145 49.1989 85.2448 49.067 83.3781Z"
          />
</svg>

<svg xmlns="http://www.w3.org/2000/svg" width="auto" height="1em" fill="currentColor" viewBox="0 0 105 105">
    <path d="M39.833 19.36c3.078-2.97 7.08-2.97 10.157 0s3.826 9.418 4.046 12.091c0 .212 0 .424-.088.636-.132.382-.484.764-.924.891-.175.085-.44.085-.66.085-2.77-.212-9.497-1.018-12.531-3.903s-3.078-6.83 0-9.8"/>
    <path d="M65.952 19.36c3.078 2.97 3.078 6.831 0 9.8s-9.762 3.692-12.532 3.904c-.22 0-.44 0-.66-.085-.395-.127-.791-.467-.923-.89-.088-.17-.088-.425-.088-.637.22-2.673 1.055-9.164 4.045-12.091 2.99-2.928 7.08-2.97 10.158 0"/>
    <path d="M62.655 87.112h-19.48c-10.598 0-19.26-8.315-19.26-18.582V49.736c0-10.267 8.618-18.582 19.26-18.582h19.524c10.597 0 19.26 8.315 19.26 18.582v18.837c0 10.224-8.62 18.581-19.26 18.581zm-19.48-48.533c-6.376 0-11.521 5.006-11.521 11.115V68.53c0 6.152 5.189 11.115 11.52 11.115H62.7c6.376 0 11.52-5.006 11.52-11.115V49.736c0-6.151-5.188-11.115-11.52-11.115H43.175z"/>
    <path d="M49.067 83.378a526 526 0 0 1 0-48.533c.132-2.037 1.935-3.606 4.045-3.521 1.98.084 3.518 1.654 3.65 3.52.44 8.104.484 16.164.528 24.268-.044 8.102-.088 16.163-.528 24.266-.132 2.037-1.935 3.606-4.045 3.521-1.979-.085-3.518-1.654-3.65-3.52"/>
</svg>
